X: 14553
T: Gan Ainm
R: waltz
M: 3/4
K: Edorian
E6|G2 FD E2|A2 F2 A2|G2 E2 E2|E6|G2 FD E2|A2 F2 A2|(B3B2) A/G/|
A E3 ED/E/|G2 FD E2|A2 F2 AA/B/|G2 E3 A/G/|E6|G2 FD E2|A2 F2 A2|B6|
A6|B2 d2 e2|c6|d2 f2 g2|f4 eg|fd e3 d/e/|
A6|B2 d2 e2|c6|d2 f2 g2|f4 eg|fd e4|

